X: 161
M: C|
L: 1/8
K: D
V: 1
x2  AFDA BGAF | BGAF GEEG | FAd=c BGed | cA a/g/f/e/ fdd |]
f | defg afdf | b/a/g/f/ df geef | defg afdA | Bgfe fddf |
x2  defg afdf | b/a/g/f/ df geeg | fdaf gebg | fdAc dDD |]
V: 2 clef=bass middle=d
z | d2f2 g2f2 | g2f2 e2g2 | f2f2 g2c'2 | d'2a2 d2z2 |
x2  d2f2 g2f2 | g2f2 e2c2 | d2f2 g2^g2 | a2A2 d2D |]
z | d2d2 d2d2 | d2d2 e2A2 | f2d2 d2f2 | g2a2 d2D2 |
x2  d2d2 d2d2 | d2d2 e2c2 | d2f2 e2g2 | a2A2 d2D |]


